X:5865
T:Scottisch
O:england
C:Strakal
M:2/4
L:1/8
K:C
CE Gc|cB/A/ G2|GG D/C/D/E/|1 FE/D/ EC:|2 FE/D/ C2||
|:cc cB/A/|GE E/D/E/F/|GG D/C/D/E/|1 FE/D/ EC:|2 FE/D/ C2||


